icon/lg/dyndns.svg

<?xml version="1.0" encoding="UTF-8"?>
<svg viewBox="0 0 512 150" version="1.1" xmlns="http://www.w3.org/2000/svg" preserveAspectRatio="xMidYMid" height="1em" width="1em">
  <g>
    <path d="M153.392713,0 C191.744081,0 222.834008,31.089927 222.834008,69.4412955 L222.834008,79.805668 C222.834008,118.157037 191.744081,149.246964 153.392713,149.246964 L69.4412955,149.246964 C31.089927,149.246964 0,118.157037 0,79.805668 L0,69.4412955 C0,31.089927 31.089927,0 69.4412955,0 L153.392713,0 Z M153.392713,25.9109312 L69.4412955,25.9109312 C45.6405507,25.9109312 26.3011705,45.0123039 25.916763,68.7214414 L25.9109312,69.4412955 L25.9109312,79.805668 C25.9109312,103.606413 45.0123039,122.945793 68.7214414,123.330201 L69.4412955,123.336032 L153.392713,123.336032 C177.193457,123.336032 196.532838,104.23466 196.917245,80.5255222 L196.923077,79.805668 L196.923077,69.4412955 C196.923077,45.6405507 177.821704,26.3011705 154.112567,25.916763 L153.392713,25.9109312 Z" fill="#C74634"/>
    <path d="M366.001203,73.085131 C366.001203,85.1934403 362.719639,94.5227934 356.156511,101.07319 C349.593383,107.623587 340.367546,110.898785 328.479001,110.898785 L305.369624,110.898785 L305.369624,38.3481781 L330.091284,38.3481781 C341.556401,38.3481781 350.407667,41.3256312 356.645081,47.2805374 C362.882496,53.2354437 366.001203,61.8369748 366.001203,73.085131 Z M349.353295,74.6938729 C349.353295,66.8083476 347.691832,60.9628588 344.368907,57.1574063 C341.045982,53.3519538 335.998897,51.4492276 329.227654,51.4492276 L322.017533,51.4492276 L322.017533,99.645087 L327.534843,99.645087 C335.058447,99.645087 340.575757,97.5952428 344.086772,93.4955543 C347.597787,89.3958658 349.353295,83.1286387 349.353295,74.6938729 Z M370.444332,38.3481781 L396.328947,83.1002024 L396.328947,110.898785 L412.196356,110.898785 L412.196356,83.1002024 L437.880567,38.3481781 L420.611336,38.3481781 L404.162449,68.3917004 L388.687247,38.3481781 L370.444332,38.3481781 Z M450.915992,110.898785 L450.915992,38.3481781 L465.449393,38.3481781 L495.751012,84.8228745 L495.751012,38.3481781 L512,38.3481781 L512,110.898785 L497.70749,110.898785 L466.861336,65.492915 L466.861336,110.898785 L450.915992,110.898785 Z" fill="#000000"/>
  </g>
</svg>

<svg width="512" height="150" xmlns="http://www.w3.org/2000/svg" preserveAspectRatio="xMidYMid"><path d="M153.393 0c38.351 0 69.441 31.09 69.441 69.441v10.365c0 38.351-31.09 69.441-69.441 69.441H69.44C31.09 149.247 0 118.157 0 79.806V69.44C0 31.09 31.09 0 69.441 0h83.952Zm0 25.91H69.44c-23.8 0-43.14 19.102-43.524 42.811l-.006.72v10.365c0 23.8 19.101 43.14 42.81 43.524l.72.006h83.952c23.8 0 43.14-19.101 43.524-42.81l.006-.72V69.44c0-23.8-19.101-43.14-42.81-43.524l-.72-.006Z" fill="#C74634"/><path d="M366.001 73.085c0 12.108-3.281 21.438-9.844 27.988-6.564 6.55-15.79 9.826-27.678 9.826h-23.11v-72.55h24.722c11.465 0 20.317 2.977 26.554 8.932 6.237 5.954 9.356 14.556 9.356 25.804Zm-16.648 1.609c0-7.886-1.661-13.731-4.984-17.537-3.323-3.805-8.37-5.708-15.141-5.708h-7.21v48.196h5.517c7.523 0 13.04-2.05 16.552-6.15 3.51-4.1 5.266-10.366 5.266-18.801Zm21.091-36.346L396.33 83.1V110.9h15.867V83.1l25.685-44.752h-17.27l-16.449 30.044-15.475-30.044h-18.243Zm80.472 72.55v-72.55h14.533l30.302 46.475V38.348H512v72.55h-14.293l-30.846-45.405v45.406h-15.945Z"/></svg>
